app/component-library/components/Icons/Icon/assets/notification.svg

<svg width="24" height="24" viewBox="0 0 24 24" fill="none" xmlns="http://www.w3.org/2000/svg">
<path d="M19.6207 14.49L18.6207 12.83C18.4107 12.46 18.2207 11.76 18.2207 11.35V8.82C18.2207 6.47 16.8407 4.44 14.8507 3.49C14.3307 2.57 13.3707 2 12.2707 2C11.1807 2 10.2007 2.59 9.6807 3.52C7.7307 4.49 6.3807 6.5 6.3807 8.82V11.35C6.3807 11.76 6.1907 12.46 5.9807 12.82L4.9707 14.49C4.5707 15.16 4.4807 15.9 4.7307 16.58C4.9707 17.25 5.5407 17.77 6.2807 18.02C8.2207 18.68 10.2607 19 12.3007 19C14.3407 19 16.3807 18.68 18.3207 18.03C19.0207 17.8 19.5607 17.27 19.8207 16.58C20.0807 15.89 20.0107 15.13 19.6207 14.49Z" fill="currentColor"/>
<path d="M15.1104 20.01C14.6904 21.17 13.5804 22 12.2804 22C11.4904 22 10.7104 21.68 10.1604 21.11C9.84039 20.81 9.60039 20.41 9.46039 20C9.59039 20.02 9.72039 20.03 9.86039 20.05C10.0904 20.08 10.3304 20.11 10.5704 20.13C11.1404 20.18 11.7204 20.21 12.3004 20.21C12.8704 20.21 13.4404 20.18 14.0004 20.13C14.2104 20.11 14.4204 20.1 14.6204 20.07C14.7804 20.05 14.9404 20.03 15.1104 20.01Z" fill="currentColor"/>
</svg>

<svg xmlns="http://www.w3.org/2000/svg" width="24" height="24" viewBox="0 0 24 24" fill="none"><path d="m19.62 14.49-1-1.66c-.21-.37-.4-1.07-.4-1.48V8.82a5.91 5.91 0 0 0-3.37-5.33A2.926 2.926 0 0 0 12.27 2c-1.09 0-2.07.59-2.59 1.52-1.95.97-3.3 2.98-3.3 5.3v2.53c0 .41-.19 1.11-.4 1.47l-1.01 1.67c-.4.67-.49 1.41-.24 2.09.24.67.81 1.19 1.55 1.44 1.94.66 3.98.98 6.02.98 2.04 0 4.08-.32 6.02-.97.7-.23 1.24-.76 1.5-1.45s.19-1.45-.2-2.09zM15.11 20.01A3.014 3.014 0 0 1 12.28 22c-.79 0-1.57-.32-2.12-.89-.32-.3-.56-.7-.7-1.11.13.02.26.03.4.05.23.03.47.06.71.08.57.05 1.15.08 1.73.08.57 0 1.14-.03 1.7-.08.21-.02.42-.03.62-.06l.49-.06z" fill="currentColor"/></svg>
